!!!!SEGMENT: pl-wtm--r-1420--002_stefani-jozef-valc.krn
!!!id: 18xx:2425
!!!COM: Stefani, Józef
!!!OTL: Valc
!!!PDT:
!!!SMS-siglum: PL-Wtm
!!!SMS-shelfmark: R 1420
!!!NIFC-rismID: 1001116019
!!!URL-scan: http://repozytorium.nifc.pl/skany/pl-wtm-nut--r1420
!!!ONB-nifc: UWAGA: w zbiorze 1. Mazur, 2. Valc (od 3 systemu), 3. Valc (od 6 systemu), 4. Mazur
!!!SMS-variant:
!!!SMS-altvar:
!!!OMD:Walc
**kern	**kern
*part2	*part1
*staff2	*staff1
*I"fortepian	*
*>[A,A,B,B1,B,C,D,D]	*>[A,A,B,B1,B,C,D,D]
*clefF4	*clefG2
*k[]	*k[]
*M3/8	*M3/8
=1	=1
*>A	*>A
8C\L 8c	8e/L
8GG\ 8G	8e/ 8g
8EE\J 8E	8e/J 8g 8cc
=2	=2
8CC/ 8C	4.e/ 4.g 4.cc 4.ee
*tremolo	*
8C\L 8E 8G	.
8C\J 8E 8G	.
=3	=3
8BB/	16ee\LL
.	16dd\
8A\L 8d 8f	16ee\
.	16dd\
8A\J 8d 8f	16ee\
.	16dd\JJ
*Xtremolo	*
=4	=4
8C\L	4.cc\
8G\ 8c 8e	.
8G\J 8c 8e	.
=5	=5
8GG#X/	16cc\LL
.	16b\
*tremolo	*
8E\L 8B 8d	16cc\
.	16b\
8E\J 8B 8d	16cc\
.	16b\JJ
=6	=6
8AA/	4a/
8E\L 8A 8c	.
8E\J 8A 8c	8g/
=7	=7
8D\L 8A 8c	16f#X/LL
.	16a/
8D\ 8A 8c	16cc/
.	16ee/
8D\J 8A 8c	16dd/
.	16f#/JJ
*Xtremolo	*
=8	=8
4G\ 4B	4g/
8r	8r
=9:|!|:	=9:|!|:
*>B	*>B
16G\LL 16B 16d 16f	4a-X/
16G\JJ 16B 16d 16f	.
*tremolo	*
8G\L 8B 8d 8f	.
8G\J 8B 8d 8f	8g/
*Xtremolo	*
=10	=10
*rep	*
16G\LL 16B 16d 16f	4an/
16G\JJ 16B 16d 16f	.
*tremolo	*
8G\L 8B 8d 8f	.
8G\J 8B 8d 8f	8g/
*Xrep	*
*Xtremolo	*
=11	=11
8C\	16f#X/LL
.	16g/
*tremolo	*
8G\L 8c 8e	16cc/
.	16ee/J
8G\J 8c 8e	8gg/J
=12	=12
*rep	*
8C\	16f#X/LL
.	16g/
8G\L 8c 8e	16cc/
.	16ee/J
8G\J 8c 8e	8gg/J
*Xrep	*
*Xtremolo	*
=13	=13
16G\LL 16B 16d 16f	4a-X\ 4aa-X
16G\JJ 16B 16d 16f	.
*tremolo	*
8G\L 8B 8d 8f	.
8G\J 8B 8d 8f	8g\ 8gg
*Xtremolo	*
=14	=14
*rep	*
16G\LL 16B 16d 16f	4an\ 4aan
16G\JJ 16B 16d 16f	.
*tremolo	*
8G\L 8B 8d 8f	.
8G\J 8B 8d 8f	8g\ 8gg
*Xrep	*
*Xtremolo	*
=15	=15
8C\	16ff#X\LL
.	16gg\
*tremolo	*
8G\L 8c 8e	16ccc\
.	16eee\J
8G\J 8c 8e	8ggg\J
=16	=16
*rep	*
8C\	16ff#X\LL
.	16gg\
8G\L 8c 8e	16ccc\
.	16eee\J
8G\J 8c 8e	8ggg\J
*Xrep	*
*Xtremolo	*
=17	=17
8E\L	8gg\L
.	8qqaa/
8G\ 8c	16gg\L
.	16ff#X\
8G\J 8c	16gg\
.	16aa\JJ
=18	=18
8E\	4bb-X\
*tremolo	*
8G\L 8B-X 8c#X	.
8G\J 8B- 8c#	8cc#X\
*Xtremolo	*
!!LO:LB:g=original
=19	=19
8F\L	8dd\L
.	8qbbn/
8A\ 8d	16aa\L
.	16gg#X\
8A\J 8d	16aa\
.	16bb\JJ
=20	=20
8F#X\L	4ccc\
8A\ 8c 8e-X	.
8A\J 8c 8e-	8aa\
=21	=21
.	8qgg/
*tremolo	*
8G\L 8c 8en	8ggg\L
8G\ 8c 8e	16fff\L
.	16eee\
8G\J 8c 8e	16ddd\
.	16ccc\JJ
=22	=22
8G\L 8B 8d 8f	16bb\LL
.	16aa\
8G\ 8B 8d 8f	16gg\
.	16ff\
8G\J 8B 8d 8f	16ee\
.	16dd\JJ
*Xtremolo	*
=23	=23
8c\L 8e	8cc\L
8G\	8g\
8E\J	8ee\J
=24	=24
!LO:TX:t=1raz.	!
*>B1	*>B1
4C/	4cc\
8r	8r
=25:|!	=25:|!
*>C	*>C
*k[b-]	*k[b-]
8C\L 8E	8cc\L
8D\ 8F	8bn\
8E\J 8G	8b-X\J
=26!|:	=26!|:
*>D	*>D
8F\L	4.a\ 4.aa
8A\ 8c	.
8A\J 8c	.
=27	=27
*rep	*
8F\L	4.f\ 4.ff
8A\ 8c	.
8A\J 8c	.
*Xrep	*
=28	=28
8E\L	4.cc\ 4.ccc
8G\ 8c	.
8G\J 8c	.
=29	=29
*rep	*
8E\L	8b-\L 8bb-
8G\ 8c	8a\ 8aa
8G\J 8c	8g\J 8gg
*Xrep	*
=30	=30
8D\L	4f\ 4ff
8F\ 8A	.
8F\J 8A	16ee\LL
.	16ff\JJ
=31	=31
8BB-\L	4g\ 4gg
8D\ 8G	.
8D\J 8G	16ff\LL
.	16gg\JJ
=32	=32
8AA\L	4.a\ 4.aa
8C#X\ 8E 8A	.
8C#\J 8E 8A	.
=33	=33
*rep	*
8AA\L	4.a\ 4.aa
8C#X\ 8E 8A	.
8C#\J 8E 8A	.
*Xrep	*
=34	=34
8Cn\L	4.b-\ 4.bb-
8E\ 8G	.
8E\J 8G	.
=35	=35
8BB-X\L	4.g\ 4.gg
8C\ 8E 8G	.
8C\J 8E 8G	.
=36	=36
8AA\L	4.cc\ 4.ccc
8C\ 8F	.
8C\J 8F	.
=37	=37
8AA-X\L	8r
8C\ 8F	8cc\L 8ccc
8C\J 8F	8dd\J 8ddd
!!LO:LB:g=original
=38	=38
8GG\L	4ee\ 4eee
8C\ 8E	.
8C\J 8E	16fff\LL
.	16eee\JJ
=39	=39
8GG\L	4dd\ 4ddd
8BBn\ 8D 8Fn	.
8BB\J 8D 8F	16eee\LL
.	16ddd\JJ
=40	=40
8C\L	4.cc\ 4.ccc
8E\	.
8G\J	.
=41	=41
8C\L 8E	8ccc\L
8D\ 8F	8bbn\
8E\J 8G	8bb-X\J
=42	=42
8F\L	4.a\ 4.aa
8A\ 8c	.
8A\J 8c	.
=43	=43
*rep	*
8F\L	4.f\ 4.ff
8A\ 8c	.
8A\J 8c	.
*Xrep	*
=44	=44
8E\L	4.cc\ 4.ccc
8G\ 8c	.
8G\J 8c	.
=45	=45
*rep	*
8E\L	8b-\L 8bb-
8G\ 8c	8a\ 8aa
8G\J 8c	8g\J 8gg
*Xrep	*
=46	=46
8D\L	4f\ 4ff
8F\ 8A	.
8F\J 8A	16ee\LL
.	16ff\JJ
=47	=47
8BB-\L	4g\ 4gg
8D\ 8G	.
8D\J 8G	16ff\LL
.	16gg\JJ
=48	=48
8AA\L	4.a\ 4.aa
8C#X\ 8E 8A	.
8C#\J 8E 8A	.
=49	=49
*rep	*
8AA\L	4.a\ 4.aa
8C#X\ 8E 8A	.
8C#\J 8E 8A	.
*Xrep	*
=50	=50
8BB-X\L	8.aa\L
8Cn\ 8E 8G	.
.	16gg\L
8C\J 8E 8G	16aa\
.	16gg\JJ
=51	=51
*rep	*
8BB-X\L	8.aa\L
8Cn\ 8E 8G	.
.	16gg\L
8C\J 8E 8G	16ff#X\
.	16gg\JJ
*Xrep	*
=52	=52
8AA\L	8.ddd\L
8C\ 8F 8A	.
.	16ccc\L
8C\J 8F 8A	16bbn\
.	16ccc\JJ
=53	=53
8BB-\L	8.eee\L
8D\ 8G	.
.	16ddd\L
8D\J 8G	16bb-X\
.	16gg\JJ
=54	=54
8C\L	8.ddd\L
8F\ 8A	.
.	16ccc\L
8F\J 8A	16aa\
.	16ff\JJ
=55	=55
8C\L	8.ccc\L
8G\ 8B-	.
.	16bb-\L
8G\J 8B-	16gg\
.	16ee\JJ
=56	=56
8F\L 8A	16ff\LL
.	16cc\
8C\	16aa\
.	16ff\
8AA\J	16ccc\
.	16aa\JJ
=57	=57
4FF/	4fff\
!	!LO:TX:b:t=Fine.
!	!LO:TX:t=P:problem:brak zamknięcia repetycji
8r	8r
==	==
*-	*-
!!!system-decoration: {(s1,s2)}
!!!ENC: Krzysztof Stępień
!!!END: 2021-06-18
!!!EED: Andrzej Borzym
!!!EST: 2021-06-25
